images/ccxpLogo.svg

<svg width="128" height="40" viewBox="0 0 128 40" fill="none" xmlns="http://www.w3.org/2000/svg">
<path d="M6.56086 35.8498V35.8318C6.56086 35.3878 6.47986 34.9768 6.31786 34.5988C6.15586 34.2148 5.92486 33.8818 5.62486 33.5998C5.33086 33.3178 4.97686 33.0988 4.56286 32.9428C4.15486 32.7808 3.70486 32.6998 3.21286 32.6998H0.755859V38.9998H3.21286C3.70486 38.9998 4.15486 38.9188 4.56286 38.7568C4.97686 38.5948 5.33086 38.3728 5.62486 38.0908C5.92486 37.8088 6.15586 37.4758 6.31786 37.0918C6.47986 36.7078 6.56086 36.2938 6.56086 35.8498ZM5.11186 35.8678C5.11186 36.1498 5.06386 36.4048 4.96786 36.6328C4.87786 36.8608 4.74886 37.0588 4.58086 37.2268C4.41886 37.3948 4.22086 37.5238 3.98686 37.6138C3.75286 37.7038 3.49486 37.7488 3.21286 37.7488H2.14186V33.9508H3.21286C3.49486 33.9508 3.75286 33.9988 3.98686 34.0948C4.22086 34.1848 4.41886 34.3138 4.58086 34.4818C4.74886 34.6498 4.87786 34.8508 4.96786 35.0848C5.06386 35.3188 5.11186 35.5738 5.11186 35.8498V35.8678Z" fill="black"/>
<path d="M12.7729 38.9998V37.7668H9.3529V36.4438H12.3229V35.2108H9.3529V33.9328H12.7279V32.6998H7.9759V38.9998H12.7729Z" fill="black"/>
<path d="M22.3914 35.8408C22.3914 35.3848 22.3254 34.9588 22.1934 34.5628C22.0614 34.1668 21.8724 33.8218 21.6264 33.5278C21.3864 33.2338 21.0924 33.0058 20.7444 32.8438C20.4024 32.6758 20.0214 32.5918 19.6014 32.5918C19.1814 32.5918 18.7974 32.6758 18.4494 32.8438C18.1074 33.0118 17.8134 33.2428 17.5674 33.5368C17.3214 33.8308 17.1294 34.1788 16.9914 34.5808C16.8594 34.9768 16.7934 35.4028 16.7934 35.8588C16.7934 36.3208 16.8594 36.7498 16.9914 37.1458C17.1234 37.5358 17.3094 37.8778 17.5494 38.1718C17.7954 38.4658 18.0894 38.6968 18.4314 38.8648C18.7794 39.0268 19.1634 39.1078 19.5834 39.1078C20.0034 39.1078 20.3844 39.0238 20.7264 38.8558C21.0744 38.6878 21.3714 38.4568 21.6174 38.1628C21.8634 37.8688 22.0524 37.5238 22.1844 37.1278C22.3224 36.7318 22.3914 36.3028 22.3914 35.8408ZM20.9694 35.8588C20.9694 36.1468 20.9364 36.4138 20.8704 36.6598C20.8104 36.8998 20.7204 37.1098 20.6004 37.2898C20.4804 37.4698 20.3364 37.6108 20.1684 37.7128C20.0004 37.8088 19.8114 37.8568 19.6014 37.8568C19.3914 37.8568 19.1994 37.8058 19.0254 37.7038C18.8574 37.6018 18.7134 37.4608 18.5934 37.2808C18.4734 37.1008 18.3804 36.8878 18.3144 36.6418C18.2484 36.3958 18.2154 36.1288 18.2154 35.8408C18.2154 35.5528 18.2454 35.2858 18.3054 35.0398C18.3714 34.7938 18.4644 34.5838 18.5844 34.4098C18.7044 34.2298 18.8484 34.0918 19.0164 33.9958C19.1844 33.8938 19.3734 33.8428 19.5834 33.8428C19.7934 33.8428 19.9824 33.8938 20.1504 33.9958C20.3244 34.0978 20.4714 34.2388 20.5914 34.4188C20.7114 34.5988 20.8044 34.8118 20.8704 35.0578C20.9364 35.3038 20.9694 35.5708 20.9694 35.8588Z" fill="black"/>
<path d="M23.2777 33.1948L23.5657 34.3288L24.6637 34.0588V38.9998H26.0317V32.6548H25.0867L23.2777 33.1948Z" fill="black"/>
<path d="M36.8108 38.9998L34.1108 32.6548H32.8328L30.1328 38.9998H31.5458L32.1218 37.5868H34.7858L35.3618 38.9998H36.8108ZM34.2908 36.3628H32.6168L33.4538 34.3198L34.2908 36.3628Z" fill="black"/>
<path d="M46.1694 35.8408C46.1694 35.3848 46.1034 34.9588 45.9714 34.5628C45.8394 34.1668 45.6504 33.8218 45.4044 33.5278C45.1644 33.2338 44.8704 33.0058 44.5224 32.8438C44.1804 32.6758 43.7994 32.5918 43.3794 32.5918C42.9594 32.5918 42.5754 32.6758 42.2274 32.8438C41.8854 33.0118 41.5914 33.2428 41.3454 33.5368C41.0994 33.8308 40.9074 34.1788 40.7694 34.5808C40.6374 34.9768 40.5714 35.4028 40.5714 35.8588C40.5714 36.3208 40.6374 36.7498 40.7694 37.1458C40.9014 37.5358 41.0874 37.8778 41.3274 38.1718C41.5734 38.4658 41.8674 38.6968 42.2094 38.8648C42.5574 39.0268 42.9414 39.1078 43.3614 39.1078C43.7814 39.1078 44.1624 39.0238 44.5044 38.8558C44.8524 38.6878 45.1494 38.4568 45.3954 38.1628C45.6414 37.8688 45.8304 37.5238 45.9624 37.1278C46.1004 36.7318 46.1694 36.3028 46.1694 35.8408ZM44.7474 35.8588C44.7474 36.1468 44.7144 36.4138 44.6484 36.6598C44.5884 36.8998 44.4984 37.1098 44.3784 37.2898C44.2584 37.4698 44.1144 37.6108 43.9464 37.7128C43.7784 37.8088 43.5894 37.8568 43.3794 37.8568C43.1694 37.8568 42.9774 37.8058 42.8034 37.7038C42.6354 37.6018 42.4914 37.4608 42.3714 37.2808C42.2514 37.1008 42.1584 36.8878 42.0924 36.6418C42.0264 36.3958 41.9934 36.1288 41.9934 35.8408C41.9934 35.5528 42.0234 35.2858 42.0834 35.0398C42.1494 34.7938 42.2424 34.5838 42.3624 34.4098C42.4824 34.2298 42.6264 34.0918 42.7944 33.9958C42.9624 33.8938 43.1514 33.8428 43.3614 33.8428C43.5714 33.8428 43.7604 33.8938 43.9284 33.9958C44.1024 34.0978 44.2494 34.2388 44.3694 34.4188C44.4894 34.5988 44.5824 34.8118 44.6484 35.0578C44.7144 35.3038 44.7474 35.5708 44.7474 35.8588Z" fill="black"/>
<path d="M50.5746 32.6548L47.1186 36.6598L47.3436 37.6408H50.4216V38.9998H51.7446V37.6408H52.5906V36.5158H51.7446V32.6548H50.5746ZM50.4216 36.5158H48.7476L50.4216 34.5538V36.5158Z" fill="black"/>
<path d="M62.6639 35.8498V35.8318C62.6639 35.3878 62.5829 34.9768 62.4209 34.5988C62.2589 34.2148 62.0279 33.8818 61.7279 33.5998C61.4339 33.3178 61.0799 33.0988 60.6659 32.9428C60.2579 32.7808 59.8079 32.6998 59.3159 32.6998H56.8589V38.9998H59.3159C59.8079 38.9998 60.2579 38.9188 60.6659 38.7568C61.0799 38.5948 61.4339 38.3728 61.7279 38.0908C62.0279 37.8088 62.2589 37.4758 62.4209 37.0918C62.5829 36.7078 62.6639 36.2938 62.6639 35.8498ZM61.2149 35.8678C61.2149 36.1498 61.1669 36.4048 61.0709 36.6328C60.9809 36.8608 60.8519 37.0588 60.6839 37.2268C60.5219 37.3948 60.3239 37.5238 60.0899 37.6138C59.8559 37.7038 59.5979 37.7488 59.3159 37.7488H58.2449V33.9508H59.3159C59.5979 33.9508 59.8559 33.9988 60.0899 34.0948C60.3239 34.1848 60.5219 34.3138 60.6839 34.4818C60.8519 34.6498 60.9809 34.8508 61.0709 35.0848C61.1669 35.3188 61.2149 35.5738 61.2149 35.8498V35.8678Z" fill="black"/>
<path d="M68.8759 38.9998V37.7668H65.4559V36.4438H68.4259V35.2108H65.4559V33.9328H68.8309V32.6998H64.0789V38.9998H68.8759Z" fill="black"/>
<path d="M78.9715 35.8498V35.8318C78.9715 35.3878 78.8905 34.9768 78.7285 34.5988C78.5665 34.2148 78.3355 33.8818 78.0355 33.5998C77.7415 33.3178 77.3875 33.0988 76.9735 32.9428C76.5655 32.7808 76.1155 32.6998 75.6235 32.6998H73.1665V38.9998H75.6235C76.1155 38.9998 76.5655 38.9188 76.9735 38.7568C77.3875 38.5948 77.7415 38.3728 78.0355 38.0908C78.3355 37.8088 78.5665 37.4758 78.7285 37.0918C78.8905 36.7078 78.9715 36.2938 78.9715 35.8498ZM77.5225 35.8678C77.5225 36.1498 77.4745 36.4048 77.3785 36.6328C77.2885 36.8608 77.1595 37.0588 76.9915 37.2268C76.8295 37.3948 76.6315 37.5238 76.3975 37.6138C76.1635 37.7038 75.9055 37.7488 75.6235 37.7488H74.5525V33.9508H75.6235C75.9055 33.9508 76.1635 33.9988 76.3975 34.0948C76.6315 34.1848 76.8295 34.3138 76.9915 34.4818C77.1595 34.6498 77.2885 34.8508 77.3785 35.0848C77.4745 35.3188 77.5225 35.5738 77.5225 35.8498V35.8678Z" fill="black"/>
<path d="M85.1835 38.9998V37.7668H81.7635V36.4438H84.7335V35.2108H81.7635V33.9328H85.1385V32.6998H80.3865V38.9998H85.1835Z" fill="black"/>
<path d="M91.6538 38.9998V37.7848H88.1888L91.6538 33.7528V32.6998H86.5148V33.9148H89.8718L86.4068 37.9468V38.9998H91.6538Z" fill="black"/>
<path d="M97.9449 38.9998V37.7668H94.5249V36.4438H97.4949V35.2108H94.5249V33.9328H97.8999V32.6998H93.1479V38.9998H97.9449Z" fill="black"/>
<path d="M105.657 38.9998V32.6998H104.163L102.507 35.3638L100.851 32.6998H99.3572V38.9998H100.716V34.9138L102.471 37.5778H102.507L104.28 34.8868V38.9998H105.657Z" fill="black"/>
<path d="M112.706 37.2718V37.2538C112.706 36.8338 112.601 36.5068 112.391 36.2728C112.181 36.0328 111.893 35.8438 111.527 35.7058C111.641 35.6458 111.746 35.5738 111.842 35.4898C111.944 35.4058 112.031 35.3098 112.103 35.2018C112.181 35.0878 112.241 34.9618 112.283 34.8238C112.331 34.6858 112.355 34.5268 112.355 34.3468V34.3288C112.355 33.8308 112.169 33.4348 111.797 33.1408C111.431 32.8468 110.924 32.6998 110.276 32.6998H107.351V38.9998H110.348C110.702 38.9998 111.023 38.9638 111.311 38.8918C111.605 38.8198 111.854 38.7118 112.058 38.5678C112.268 38.4238 112.427 38.2438 112.535 38.0278C112.649 37.8118 112.706 37.5598 112.706 37.2718ZM110.978 34.5808C110.978 34.8148 110.888 34.9858 110.708 35.0938C110.528 35.1958 110.285 35.2468 109.979 35.2468H108.701V33.9148H110.069C110.363 33.9148 110.588 33.9718 110.744 34.0858C110.9 34.1938 110.978 34.3528 110.978 34.5628V34.5808ZM111.329 37.1008C111.329 37.3348 111.242 37.5088 111.068 37.6228C110.894 37.7308 110.654 37.7848 110.348 37.7848H108.701V36.3988H110.303C110.663 36.3988 110.924 36.4618 111.086 36.5878C111.248 36.7078 111.329 36.8728 111.329 37.0828V37.1008Z" fill="black"/>
<path d="M119.471 38.9998L117.932 36.7498C118.334 36.5998 118.658 36.3658 118.904 36.0478C119.156 35.7238 119.282 35.3068 119.282 34.7968V34.7788C119.282 34.1248 119.072 33.6148 118.652 33.2488C118.238 32.8828 117.656 32.6998 116.906 32.6998H114.026V38.9998H115.412V36.9838H116.501L117.851 38.9998H119.471ZM117.878 34.8688C117.878 35.1388 117.785 35.3548 117.599 35.5168C117.419 35.6788 117.158 35.7598 116.816 35.7598H115.412V33.9508H116.789C117.131 33.9508 117.398 34.0258 117.59 34.1758C117.782 34.3258 117.878 34.5508 117.878 34.8508V34.8688Z" fill="black"/>
<path d="M127.127 35.8498V35.8318C127.127 35.3818 127.043 34.9618 126.875 34.5718C126.713 34.1758 126.482 33.8338 126.182 33.5458C125.888 33.2518 125.537 33.0208 125.129 32.8528C124.721 32.6788 124.274 32.5918 123.788 32.5918C123.302 32.5918 122.852 32.6788 122.438 32.8528C122.03 33.0208 121.676 33.2548 121.376 33.5548C121.082 33.8488 120.851 34.1938 120.683 34.5898C120.515 34.9798 120.431 35.3998 120.431 35.8498V35.8678C120.431 36.3178 120.512 36.7408 120.674 37.1368C120.842 37.5268 121.073 37.8688 121.367 38.1628C121.667 38.4508 122.021 38.6818 122.429 38.8558C122.837 39.0238 123.284 39.1078 123.77 39.1078C124.256 39.1078 124.703 39.0238 125.111 38.8558C125.525 38.6818 125.879 38.4478 126.173 38.1538C126.473 37.8538 126.707 37.5088 126.875 37.1188C127.043 36.7228 127.127 36.2998 127.127 35.8498ZM125.678 35.8678C125.678 36.1378 125.63 36.3928 125.534 36.6328C125.444 36.8668 125.315 37.0738 125.147 37.2538C124.985 37.4338 124.787 37.5748 124.553 37.6768C124.319 37.7788 124.064 37.8298 123.788 37.8298C123.506 37.8298 123.248 37.7788 123.014 37.6768C122.786 37.5688 122.585 37.4248 122.411 37.2448C122.243 37.0648 122.111 36.8548 122.015 36.6148C121.925 36.3748 121.88 36.1198 121.88 35.8498V35.8318C121.88 35.5618 121.925 35.3098 122.015 35.0758C122.111 34.8358 122.24 34.6258 122.402 34.4458C122.57 34.2658 122.768 34.1248 122.996 34.0228C123.23 33.9208 123.488 33.8698 123.77 33.8698C124.046 33.8698 124.301 33.9238 124.535 34.0318C124.769 34.1338 124.97 34.2748 125.138 34.4548C125.312 34.6348 125.444 34.8448 125.534 35.0848C125.63 35.3248 125.678 35.5798 125.678 35.8498V35.8678Z" fill="black"/>
<path d="M6.94494 23.0255H14.2388V18.1894H20.2577V28H1V0H20.2577V10.2019H14.2388V5.16882H6.94494V23.0255Z" fill="black"/>
<path d="M28.0009 23.0255H35.2974V18.1894H41.3163V28H22.0586V0H41.3163V10.2019H35.2974V5.16882H28.0009V23.0255Z" fill="black"/>
<path d="M53.4993 9.45665L56.8731 0H63.7367L57.9923 14.0639L64.13 28H57.1476L53.5389 18.6285L49.9329 28H42.9531L48.972 14.1011L43.1062 0H49.9698L53.4993 9.45665Z" fill="black"/>
<path d="M71.7294 20.5262V28H65.6895V0H84.3268V20.473L71.7294 20.5262ZM78.3819 5.16882H71.6318V15.3867H78.3819V5.16882Z" fill="black"/>
<path d="M100.04 20.0631L100.029 23.0175H92.6929V20.5608L105.694 12.6665V3.10875L103.007 0H87.041V8.01407H92.6929L92.6903 5.16882H100.026L100.029 10.319L87.041 18.176V28H105.694H105.699V20.0631H100.04Z" fill="#F3C61F"/>
<path d="M121.338 20.0631L121.331 23.0175H113.994V20.5608L126.993 12.6665V3.10875L124.308 0H108.34V8.01407H113.994L113.992 5.16882H121.328L121.331 10.319L108.34 18.176V28H126.993H127.001V20.0631H121.338Z" fill="#F3C61F"/>
</svg>

<svg width="128" height="40" fill="none" xmlns="http://www.w3.org/2000/svg"><path d="M6.56 35.85v-.018c0-.444-.08-.855-.242-1.233a2.905 2.905 0 0 0-.693-1 3.083 3.083 0 0 0-1.062-.656 3.628 3.628 0 0 0-1.35-.243H.756V39h2.457c.492 0 .942-.081 1.35-.243a3.196 3.196 0 0 0 1.062-.666c.3-.282.53-.615.693-1 .162-.383.243-.797.243-1.241Zm-1.448.018c0 .282-.048.537-.144.765a1.726 1.726 0 0 1-.981.98 2.14 2.14 0 0 1-.774.136H2.142V33.95h1.07c.283 0 .54.048.775.144a1.708 1.708 0 0 1 .981.99c.096.234.144.489.144.765v.018ZM12.773 39v-1.233h-3.42v-1.323h2.97V35.21h-2.97v-1.278h3.375V32.7H7.976V39h4.797ZM22.391 35.84c0-.455-.066-.881-.198-1.277a3.142 3.142 0 0 0-.567-1.035 2.468 2.468 0 0 0-.882-.684 2.557 2.557 0 0 0-1.143-.252c-.42 0-.804.084-1.152.252a2.678 2.678 0 0 0-.882.693 3.255 3.255 0 0 0-.576 1.044 4.017 4.017 0 0 0-.198 1.278c0 .462.066.89.198 1.287.132.39.318.732.558 1.026.246.294.54.525.882.693.348.162.732.243 1.152.243.42 0 .801-.084 1.143-.252a2.65 2.65 0 0 0 .891-.693c.246-.294.435-.64.567-1.035.138-.396.207-.825.207-1.287Zm-1.422.019c0 .288-.033.555-.099.8a2 2 0 0 1-.27.63 1.38 1.38 0 0 1-.432.424 1.122 1.122 0 0 1-.567.144c-.21 0-.402-.051-.576-.153a1.38 1.38 0 0 1-.432-.423 2.146 2.146 0 0 1-.279-.64 3.084 3.084 0 0 1-.099-.8c0-.288.03-.555.09-.801.066-.246.16-.456.28-.63.12-.18.263-.318.431-.414a1.07 1.07 0 0 1 .567-.153c.21 0 .4.05.567.153.174.102.321.243.441.423s.213.393.28.639c.065.246.098.513.098.8ZM23.278 33.195l.288 1.134 1.098-.27v4.94h1.368v-6.344h-.945l-1.81.54ZM36.81 39l-2.7-6.345h-1.277L30.133 39h1.413l.576-1.413h2.664L35.362 39h1.449Zm-2.52-2.637h-1.673l.837-2.043.837 2.043ZM46.17 35.84c0-.455-.067-.881-.199-1.277a3.142 3.142 0 0 0-.567-1.035 2.468 2.468 0 0 0-.882-.684 2.557 2.557 0 0 0-1.143-.252c-.42 0-.804.084-1.152.252a2.678 2.678 0 0 0-.882.693 3.255 3.255 0 0 0-.576 1.044 4.017 4.017 0 0 0-.198 1.278c0 .462.066.89.198 1.287.132.39.318.732.558 1.026.246.294.54.525.882.693.348.162.732.243 1.152.243.42 0 .801-.084 1.143-.252a2.65 2.65 0 0 0 .891-.693c.246-.294.435-.64.567-1.035.138-.396.207-.825.207-1.287Zm-1.423.019c0 .288-.033.555-.099.8a2 2 0 0 1-.27.63 1.38 1.38 0 0 1-.432.424 1.122 1.122 0 0 1-.567.144c-.21 0-.402-.051-.576-.153a1.38 1.38 0 0 1-.432-.423 2.146 2.146 0 0 1-.279-.64 3.084 3.084 0 0 1-.099-.8c0-.288.03-.555.09-.801.066-.246.16-.456.28-.63.12-.18.263-.318.431-.414a1.07 1.07 0 0 1 .567-.153c.21 0 .4.05.567.153.174.102.321.243.441.423s.213.393.28.639c.065.246.098.513.098.8ZM50.575 32.655l-3.456 4.005.225.98h3.078V39h1.323v-1.36h.846v-1.124h-.846v-3.861h-1.17Zm-.153 3.86h-1.674l1.674-1.961v1.962ZM62.664 35.85v-.018c0-.444-.081-.855-.243-1.233a2.905 2.905 0 0 0-.693-1 3.083 3.083 0 0 0-1.062-.656 3.628 3.628 0 0 0-1.35-.243h-2.457V39h2.457c.492 0 .942-.081 1.35-.243a3.196 3.196 0 0 0 1.062-.666c.3-.282.53-.615.693-1 .162-.383.243-.797.243-1.241Zm-1.45.018c0 .282-.047.537-.143.765a1.726 1.726 0 0 1-.981.98 2.14 2.14 0 0 1-.774.136h-1.071V33.95h1.07c.283 0 .54.048.775.144a1.708 1.708 0 0 1 .981.99c.096.234.144.489.144.765v.018ZM68.876 39v-1.233h-3.42v-1.323h2.97V35.21h-2.97v-1.278h3.375V32.7h-4.752V39h4.797ZM78.972 35.85v-.018c0-.444-.081-.855-.243-1.233a2.905 2.905 0 0 0-.694-1 3.083 3.083 0 0 0-1.061-.656 3.628 3.628 0 0 0-1.35-.243h-2.457V39h2.457c.492 0 .942-.081 1.35-.243a3.196 3.196 0 0 0 1.061-.666c.3-.282.532-.615.694-1 .162-.383.243-.797.243-1.241Zm-1.45.018c0 .282-.047.537-.144.765a1.726 1.726 0 0 1-.98.98 2.14 2.14 0 0 1-.774.136h-1.072V33.95h1.072c.282 0 .54.048.773.144a1.708 1.708 0 0 1 .981.99c.097.234.144.489.144.765v.018ZM85.183 39v-1.233h-3.42v-1.323h2.97V35.21h-2.97v-1.278h3.375V32.7h-4.752V39h4.797ZM91.654 39v-1.215h-3.465l3.465-4.032V32.7h-5.14v1.215h3.358l-3.465 4.032V39h5.247ZM97.945 39v-1.233h-3.42v-1.323h2.97V35.21h-2.97v-1.278H97.9V32.7h-4.752V39h4.797ZM105.657 39v-6.3h-1.494l-1.656 2.664-1.656-2.664h-1.494V39h1.359v-4.086l1.755 2.664h.036l1.773-2.691V39h1.377ZM112.706 37.272v-.018c0-.42-.105-.747-.315-.981-.21-.24-.498-.43-.864-.567.114-.06.219-.132.315-.216a1.372 1.372 0 0 0 .441-.666 1.45 1.45 0 0 0 .072-.477v-.018c0-.498-.186-.894-.558-1.188-.366-.294-.873-.441-1.521-.441h-2.925V39h2.997c.354 0 .675-.036.963-.108.294-.072.543-.18.747-.324.21-.144.369-.324.477-.54.114-.216.171-.468.171-.756Zm-1.728-2.691c0 .234-.09.405-.27.513-.18.102-.423.153-.729.153h-1.278v-1.332h1.368c.294 0 .519.057.675.17a.543.543 0 0 1 .234.478v.018Zm.351 2.52c0 .234-.087.408-.261.522-.174.108-.414.162-.72.162h-1.647v-1.386h1.602c.36 0 .621.063.783.189.162.12.243.285.243.495v.018ZM119.471 39l-1.539-2.25c.402-.15.726-.384.972-.702.252-.324.378-.741.378-1.251v-.018c0-.654-.21-1.164-.63-1.53-.414-.366-.996-.55-1.746-.55h-2.88V39h1.386v-2.015h1.089l1.35 2.016h1.62Zm-1.593-4.131c0 .27-.093.486-.279.648-.18.162-.441.243-.783.243h-1.404v-1.81h1.377c.342 0 .609.076.801.226.192.15.288.375.288.675v.018ZM127.127 35.85v-.018c0-.45-.084-.87-.252-1.26a2.956 2.956 0 0 0-.693-1.026 3.185 3.185 0 0 0-1.053-.693 3.383 3.383 0 0 0-1.341-.261c-.486 0-.936.087-1.35.26a3.215 3.215 0 0 0-1.062.703 3.233 3.233 0 0 0-.693 1.035 3.15 3.15 0 0 0-.252 1.26v.018c0 .45.081.873.243 1.269.168.39.399.732.693 1.026.3.288.654.519 1.062.693.408.168.855.252 1.341.252s.933-.084 1.341-.252a3.279 3.279 0 0 0 1.062-.702c.3-.3.534-.645.702-1.035.168-.396.252-.82.252-1.27Zm-1.449.018c0 .27-.048.525-.144.765-.09.234-.219.44-.387.62-.162.18-.36.322-.594.424a1.894 1.894 0 0 1-.765.153c-.282 0-.54-.051-.774-.153a2.055 2.055 0 0 1-.603-.432c-.168-.18-.3-.39-.396-.63a2.16 2.16 0 0 1-.135-.765v-.018c0-.27.045-.522.135-.756.096-.24.225-.45.387-.63a1.82 1.82 0 0 1 .594-.423c.234-.102.492-.153.774-.153.276 0 .531.054.765.162.234.102.435.243.603.423.174.18.306.39.396.63.096.24.144.495.144.765v.018ZM6.945 23.026h7.294v-4.837h6.019V28H1V0h19.258v10.202h-6.02V5.169H6.946v17.857ZM28 23.026h7.297v-4.837h6.02V28H22.058V0h19.257v10.202h-6.019V5.169h-7.296v17.857ZM53.5 9.457 56.872 0h6.864l-5.745 14.064L64.13 28h-6.982l-3.61-9.372L49.934 28h-6.98l6.019-13.899L43.106 0h6.864l3.53 9.457ZM71.73 20.526V28h-6.04V0h18.637v20.473l-12.598.053ZM78.381 5.17h-6.75v10.218h6.75V5.169Z" fill="#000"/><path d="m100.04 20.063-.011 2.954h-7.336v-2.456l13.001-7.895V3.11L103.007 0H87.041v8.014h5.652L92.69 5.17h7.336l.003 5.15-12.988 7.857V28H105.699v-7.937h-5.659ZM121.338 20.063l-.007 2.954h-7.337v-2.456l12.999-7.895V3.11L124.308 0H108.34v8.014h5.654l-.002-2.845h7.336l.003 5.15-12.991 7.857V28H127.001v-7.937h-5.663Z" fill="#F3C61F"/></svg>
